X: 26
M: 6/8
L: 1/8
K: D
| "D"d>ef "G"edB | "D"ABG F2D | "D"(FA)A AFA | "G"Bee edB \
| "D"def "G"edB | "D"ABG FED | "D"FAA AFA | "G"Bdd "D"d2 :|
|: g \
| "D"faa agf | "G"gbb bag | "D"faa agf | "A"gfg e2g \
| "D"faa agf | "G"gbb bag | "D"fed "A"eag | "D"fdd d2 :|


